lut/FX30.cube
LUT_3D_SIZE 6
0.000000 0.000000 0.000000
0.127481 -0.074372 -0.074372
0.645696 -0.177709 -0.177709
0.998172 -0.259339 -0.259339
1.080475 -0.289565 -0.289565
1.080475 -0.289565 -0.289565
0.000000 0.036046 0.000000
0.031004 0.026689 0.000000
0.566086 0.009096 -0.176142
0.994153 -0.245033 -0.255865
1.080475 -0.289565 -0.289565
1.080475 -0.289565 -0.289565
0.000000 0.368567 0.000000
0.000000 0.351510 0.000000
0.347634 0.322368 0.000000
0.936365 0.300414 -0.214991
1.072832 0.049617 -0.310043
1.079325 -0.189973 -0.303108
0.000000 0.783199 0.000000
0.000000 0.773335 0.000000
0.129798 0.751838 0.000000
0.760602 0.715874 0.000000
0.999919 0.565826 -0.116202
1.030654 0.432159 -0.246503
0.000000 0.993707 0.000000
0.000000 0.992932 0.000000
0.000000 0.991160 0.000000
0.457292 0.987212 0.000000
0.991482 0.973311 0.000000
1.006197 0.810576 0.000000
0.000000 0.999977 0.000000
0.000000 0.999977 0.000000
0.000000 0.999977 0.000000
0.002245 0.999977 0.000000
0.687902 0.999977 0.000000
1.006197 0.999977 0.000000
0.000000 0.000000 0.035726
0.095070 0.000000 0.045508
0.615433 -0.151578 0.070607
0.997100 -0.252694 -0.041289
1.078825 -0.287705 -0.224842
1.079340 -0.288378 -0.240702
0.003026 0.033147 0.028458
0.025024 0.024817 0.025541
0.555898 -0.112970 0.012378
0.992337 -0.247722 -0.129741
1.079247 -0.288264 -0.237997
1.079722 -0.288852 -0.252514
0.000000 0.367460 0.039944
0.000000 0.350422 0.037003
0.337418 0.317984 0.010274
0.938289 0.278762 -0.206835
1.073967 0.031739 -0.300324
1.079666 -0.206296 -0.296295
0.000000 0.782526 0.012034
0.000000 0.772733 0.010712
0.105024 0.751237 0.001011
0.754301 0.714905 0.000496
0.999898 0.565581 -0.113409
1.030853 0.431011 -0.247032
0.000000 0.993699 0.000000
0.000000 0.992886 0.000000
0.000000 0.991104 0.000000
0.450361 0.987140 0.000000
0.990923 0.973785 0.000000
1.006197 0.810228 0.000000
0.000000 0.999977 0.000000
0.000000 0.999977 0.000000
0.000000 0.999977 0.000000
0.001042 0.999977 0.000000
0.683289 0.999977 0.000000
1.006197 0.999977 0.000000
0.000000 0.000000 0.368108
0.126904 0.000000 0.365576
0.553467 0.000000 0.400185
0.974526 -0.120543 0.390857
1.052749 -0.241529 0.266868
1.054661 -0.245507 0.252154
0.000000 0.076499 0.354034
0.014774 0.029680 0.351608
0.483321 0.008724 0.372610
0.959267 -0.109932 0.381608
1.053778 -0.243795 0.258548
1.056272 -0.248767 0.239108
0.081179 0.350326 0.328418
0.102075 0.329915 0.317417
0.315818 0.311648 0.316562
0.949960 0.197289 0.274616
1.067595 0.030195 0.190307
1.066494 -0.199779 0.172119
0.000000 0.781194 0.343873
0.000000 0.771152 0.341657
0.029129 0.749745 0.310566
0.741064 0.711086 0.258082
1.004305 0.548709 0.188340
1.049342 0.415694 0.101019
0.000000 0.993584 0.251551
0.000000 0.992761 0.250305
0.000000 0.990943 0.247669
0.402867 0.986958 0.186171
0.989474 0.974258 0.172977
1.006197 0.807142 0.155747
0.000000 0.999977 0.130242
0.000000 0.999977 0.128074
0.000000 0.999977 0.123501
0.000023 0.999977 0.114671
0.667934 0.999977 0.077026
1.006197 0.999977 0.060854
0.000000 0.000000 0.785805
0.113189 0.000000 0.784450
0.547328 0.000000 0.781192
0.961110 0.000000 0.751489
1.006197 0.000000 0.600334
1.006197 0.000000 0.590175
0.000000 0.094111 0.777594
0.004333 0.046229 0.776067
0.479391 0.007603 0.772923
0.942489 0.000156 0.749947
1.006026 0.000000 0.599368
1.006197 0.000000 0.583315
0.000000 0.413862 0.759999
0.000000 0.399830 0.758417
0.279931 0.309516 0.755196
0.878303 0.246804 0.733936
1.003788 0.156874 0.597476
1.007361 0.043112 0.561239
0.266601 0.750475 0.714266
0.286194 0.737597 0.708956
0.328110 0.711578 0.696800
0.718725 0.709923 0.719198
1.021208 0.625386 0.676861
1.044795 0.537159 0.628493
0.000000 0.993353 0.629668
0.000000 0.992613 0.630212
0.000000 0.990664 0.631133
0.393547 0.986681 0.624013
0.986834 0.976768 0.664486
1.006197 0.873116 0.652883
0.000000 0.999977 0.484964
0.000000 0.999977 0.483584
0.000000 0.999977 0.480725
0.000000 0.999977 0.475682
0.741645 0.999977 0.597929
1.006197 0.999977 0.585264
0.000000 0.000000 0.994983
0.044073 0.000000 0.994903
0.467509 0.000000 0.994716
0.915071 0.000000 0.994377
1.006137 0.000000 0.925173
1.006197 0.000000 0.913400
0.000000 0.073333 0.994460
0.000104 0.051674 0.994379
0.400363 0.006167 0.994125
0.880156 0.000073 0.993732
1.005745 0.000000 0.927463
1.006197 0.000000 0.908902
0.000000 0.374910 0.993090
0.000000 0.362044 0.992943
0.228332 0.294854 0.992735
0.787322 0.240963 0.992230
1.000786 0.152297 0.942432
1.006197 0.041365 0.896256
0.000000 0.724608 0.990391
0.000000 0.715314 0.990261
0.001774 0.693073 0.989869
0.685595 0.699995 0.989249
0.999335 0.649021 0.973342
1.006197 0.565751 0.916535
0.407367 0.983596 0.965466
0.423635 0.981460 0.964947
0.455015 0.976534 0.963581
0.615538 0.971508 0.965309
0.982257 0.978005 0.982398
1.015640 0.958847 0.974425
0.000000 0.999977 0.836039
0.000000 0.999977 0.834912
0.000000 0.999977 0.832841
0.000000 0.999977 0.829215
0.812440 0.999977 0.926281
1.006159 0.999977 0.968523
0.000000 0.000000 1.006197
0.003057 0.000000 1.006197
0.348973 0.000000 1.006197
0.752803 0.000000 1.006197
0.999950 0.000000 1.006197
1.006197 0.000000 1.006197
0.000000 0.045576 1.006197
0.000000 0.033678 1.006197
0.287802 0.004553 1.006197
0.717439 0.000023 1.006197
0.999678 0.000000 1.006197
1.006197 0.000000 1.006197
0.000000 0.301189 1.006197
0.000000 0.289886 1.006197
0.159339 0.257333 1.006197
0.643450 0.233288 1.006197
0.994341 0.144456 1.006197
1.006197 0.036069 1.006197
0.000000 0.600184 1.006197
0.000000 0.591979 1.006197
0.000000 0.574082 1.006197
0.639691 0.668853 1.006197
0.976204 0.643800 1.006197
1.006197 0.559876 1.006117
0.024962 0.916771 1.001679
0.015207 0.912092 1.003010
0.003450 0.901108 1.005095
0.277273 0.883705 1.006197
0.974482 0.973535 1.006197
1.006197 0.960171 1.006037
0.605082 0.996686 0.997649
0.605081 0.996686 0.997648
0.605080 0.996686 0.997644
0.605077 0.996685 0.997638
0.920192 0.999324 0.999635
1.006197 0.999977 1.006197
