lut/FX30.cube
LUT_3D_SIZE 16
0.000000 0.000000 0.000000
0.002022 -0.020028 -0.020028
0.027427 -0.045092 -0.045092
0.127481 -0.074372 -0.074372
0.277898 -0.107123 -0.107123
0.456624 -0.142558 -0.142558
0.645696 -0.177709 -0.177709
0.822846 -0.209218 -0.209218
0.958531 -0.236635 -0.236635
0.998172 -0.259339 -0.259339
1.032047 -0.276587 -0.276587
1.071937 -0.287284 -0.287284
1.080475 -0.289565 -0.289565
1.080475 -0.289565 -0.289565
1.080475 -0.289565 -0.289565
1.080475 -0.289565 -0.289565
0.000000 0.000315 0.000000
0.000250 0.000203 0.000000
0.015181 0.000115 -0.040597
0.101825 -0.059339 -0.069963
0.252930 -0.100114 -0.102325
0.433281 -0.138010 -0.138080
0.626652 -0.174252 -0.174254
0.807849 -0.206605 -0.206605
0.952007 -0.234681 -0.234681
0.997433 -0.257949 -0.257949
1.028872 -0.275738 -0.275738
1.070508 -0.286886 -0.286886
1.080475 -0.289565 -0.289565
1.080475 -0.289565 -0.289565
1.080475 -0.289565 -0.289565
1.080475 -0.289565 -0.289565
0.000000 0.006243 0.000000
0.000023 0.005211 0.000000
0.005185 0.004395 0.000000
0.063361 0.005958 -0.055202
0.221252 0.001716 -0.102865
0.405741 -0.099558 -0.137984
0.604160 -0.159662 -0.172308
0.790212 -0.201730 -0.203893
0.943673 -0.232319 -0.232395
0.996210 -0.256329 -0.256329
1.024934 -0.274687 -0.274687
1.068700 -0.286416 -0.286416
1.080475 -0.289565 -0.289565
1.080475 -0.289565 -0.289565
1.080475 -0.289565 -0.289565
1.080475 -0.289565 -0.289565
0.000000 0.036046 0.000000
0.000000 0.033022 0.000000
0.001925 0.029744 0.000000
0.031004 0.026689 0.000000
0.157758 0.036867 -0.038199
0.352810 0.029473 -0.129571
0.566086 0.009096 -0.176142
0.763347 -0.123515 -0.208817
0.930139 -0.199454 -0.234562
0.994153 -0.245033 -0.255865
1.019259 -0.272104 -0.273395
1.066049 -0.285672 -0.285700
1.080475 -0.289565 -0.289565
1.080475 -0.289565 -0.289565
1.080475 -0.289565 -0.289565
1.080475 -0.289565 -0.289565
0.000000 0.119491 0.000000
0.000000 0.114626 0.000000
0.000023 0.109038 0.000000
0.018742 0.101231 0.000000
0.107290 0.094750 0.000000
0.277674 0.118680 0.000000
0.491647 0.118003 -0.139540
0.711293 0.078948 -0.204343
0.901977 0.023629 -0.240833
0.989560 -0.128134 -0.264460
1.011023 -0.216928 -0.280125
1.062045 -0.262167 -0.289124
1.080404 -0.283472 -0.290853
1.080456 -0.288900 -0.289718
1.080475 -0.289564 -0.289565
1.080475 -0.289565 -0.289565
0.000000 0.234624 0.000000
0.000000 0.229872 0.000000
0.000000 0.224437 0.000000
0.002561 0.216794 0.000000
0.080023 0.206744 0.000000
0.218058 0.199449 0.000000
0.416068 0.228948 0.000000
0.625798 0.230421 -0.126250
0.837974 0.190579 -0.217769
0.975914 0.123992 -0.263172
0.999955 0.039939 -0.287695
1.054069 -0.115753 -0.299654
1.079353 -0.211251 -0.301279
1.080297 -0.243726 -0.297772
1.080489 -0.267539 -0.294020
1.080481 -0.283873 -0.290805
0.000000 0.368567 0.000000
0.000000 0.364049 0.000000
0.000000 0.358885 0.000000
0.000000 0.351510 0.000000
0.032120 0.341990 0.000000
0.186715 0.329879 0.000000
0.347634 0.322368 0.000000
0.559760 0.349421 0.000000
0.752213 0.343158 -0.087696
0.936365 0.300414 -0.214991
0.997568 0.232208 -0.273435
1.035961 0.146927 -0.301193
1.072832 0.049617 -0.310043
1.076475 0.009015 -0.308626
1.078092 -0.120973 -0.306321
1.079325 -0.189973 -0.303108
0.000000 0.513520 0.000000
0.000000 0.509611 0.000000
0.000000 0.504972 0.000000
0.000000 0.498632 0.000000
0.001183 0.490196 0.000000
0.126043 0.479595 0.000000
0.311253 0.466480 0.000000
0.490359 0.458046 0.000000
0.696239 0.468850 0.000000
0.871107 0.450498 -0.019688
0.982100 0.402579 -0.196468
1.003429 0.328684 -0.270942
1.055137 0.239190 -0.302798
1.065214 0.179451 -0.308684
1.068494 0.140140 -0.310257
1.071620 0.093656 -0.310790
0.000000 0.653227 0.000000
0.000000 0.649954 0.000000
0.000000 0.646193 0.000000
0.000000 0.640910 0.000000
0.000000 0.634001 0.000000
0.028136 0.625255 0.000000
0.241998 0.614529 0.000000
0.439999 0.601645 0.000000
0.629846 0.591011 0.000000
0.822095 0.582949 0.000000
0.956492 0.549097 0.000000
0.997263 0.492459 -0.163028
1.025320 0.409078 -0.255958
1.045711 0.339289 -0.283918
1.050058 0.309575 -0.291519
1.054583 0.276176 -0.298150
0.000000 0.783199 0.000000
0.000000 0.780586 0.000000
0.000000 0.777475 0.000000
0.000000 0.773335 0.000000
0.000000 0.767770 0.000000
0.000080 0.760585 0.000000
0.129798 0.751838 0.000000
0.360088 0.741498 0.000000
0.565108 0.729084 0.000000
0.760602 0.715874 0.000000
0.928070 0.688047 0.000000
0.990553 0.636554 0.000000
0.999919 0.565826 -0.116202
1.021637 0.486146 -0.211499
1.026218 0.458452 -0.230965
1.030654 0.432159 -0.246503
0.000000 0.899449 0.000000
0.000000 0.897639 0.000000
0.000000 0.895522 0.000000
0.000000 0.892271 0.000000
0.000000 0.887892 0.000000
0.000000 0.882450 0.000000
0.010263 0.875615 0.000000
0.246597 0.867266 0.000000
0.474669 0.857647 0.000000
0.683281 0.846164 0.000000
0.879667 0.829805 0.000000
0.980243 0.780603 0.000000
0.999284 0.708895 0.000000
1.005994 0.620410 -0.036781
1.007983 0.590579 -0.093961
1.009892 0.569954 -0.124798
0.000000 0.968273 0.000000
0.000000 0.967536 0.000000
0.000000 0.966684 0.000000
0.000000 0.965413 0.000000
0.000000 0.963786 0.000000
0.000000 0.961625 0.000000
0.000000 0.958820 0.000000
0.094027 0.955383 0.000000
0.356959 0.951077 0.000000
0.581421 0.945661 0.000000
0.791078 0.939232 0.000000
0.959752 0.924422 0.000000
0.997270 0.857292 0.000000
1.002442 0.760979 0.000000
1.006197 0.708854 0.000000
1.006197 0.691369 0.000000
0.000000 0.993707 0.000000
0.000000 0.993524 0.000000
0.000000 0.993252 0.000000
0.000000 0.992932 0.000000
0.000000 0.992485 0.000000
0.000000 0.991880 0.000000
0.000000 0.991160 0.000000
0.000385 0.990026 0.000000
0.211338 0.988821 0.000000
0.457292 0.987212 0.000000
0.677181 0.985235 0.000000
0.885224 0.982720 0.000000
0.991482 0.973311 0.000000
0.999943 0.911243 0.000000
1.006197 0.827936 0.000000
1.006197 0.810576 0.000000
0.000000 0.999540 0.000000
0.000000 0.999503 0.000000
0.000000 0.999466 0.000000
0.000000 0.999457 0.000000
0.000000 0.999370 0.000000
0.000000 0.999309 0.000000
0.000000 0.999198 0.000000
0.000000 0.999102 0.000000
0.036631 0.998860 0.000000
0.312332 0.998586 0.000000
0.544966 0.998290 0.000000
0.757960 0.997837 0.000000
0.946942 0.997179 0.000000
0.999389 0.992271 0.000000
1.006165 0.940552 0.000000
1.006197 0.924950 0.000000
0.000000 0.999977 0.000000
0.000000 0.999977 0.000000
0.000000 0.999977 0.000000
0.000000 0.999976 0.000000
0.000000 0.999976 0.000000
0.000000 0.999975 0.000000
0.000000 0.999973 0.000000
0.000000 0.999970 0.000000
0.000000 0.999965 0.000000
0.143203 0.999956 0.000000
0.396208 0.999943 0.000000
0.614730 0.999919 0.000000
0.819009 0.999875 0.000000
0.975004 0.999862 0.000000
1.002933 0.997664 0.000000
1.006197 0.986558 0.000000
0.000000 0.999977 0.000000
0.000000 0.999977 0.000000
0.000000 0.999977 0.000000
0.000000 0.999977 0.000000
0.000000 0.999977 0.000000
0.000000 0.999977 0.000000
0.000000 0.999977 0.000000
0.000000 0.999977 0.000000
0.000000 0.999977 0.000000
0.002245 0.999977 0.000000
0.250829 0.999977 0.000000
0.483238 0.999977 0.000000
0.687902 0.999977 0.000000
0.878551 0.999977 0.000000
0.989192 0.999977 0.000000
1.006197 0.999977 0.000000
0.000000 0.000000 0.000308
0.001347 0.000000 0.000442
0.024243 -0.039227 0.000645
0.122937 -0.071995 -0.018589
0.273939 -0.105796 -0.082505
0.453419 -0.141791 -0.126497
0.643227 -0.177315 -0.166837
0.820974 -0.208993 -0.201924
0.957856 -0.236468 -0.231883
0.998092 -0.259202 -0.256381
1.031682 -0.276510 -0.274928
1.071733 -0.287233 -0.286447
1.080468 -0.289559 -0.289233
1.080469 -0.289573 -0.289467
1.080469 -0.289572 -0.289561
1.080469 -0.289572 -0.289568
0.000000 0.000297 0.000227
0.000183 0.000181 0.000187
0.014115 -0.025011 0.000054
0.098122 -0.065425 -0.047386
0.249395 -0.100770 -0.085202
0.429972 -0.137365 -0.125569
0.624196 -0.173912 -0.165922
0.806000 -0.206345 -0.201096
0.951142 -0.234473 -0.231167
0.997274 -0.257815 -0.255888
1.028458 -0.275635 -0.274630
1.070304 -0.286837 -0.286403
1.080469 -0.289574 -0.289423
1.080469 -0.289572 -0.289549
1.080469 -0.289572 -0.289567
1.080469 -0.289572 -0.289570
0.000000 0.006171 0.000366
0.000000 0.005144 0.000293
0.004624 0.004189 0.000097
0.061963 0.004907 -0.053297
0.218947 0.000762 -0.100018
0.402893 -0.107595 -0.135364
0.601632 -0.163584 -0.170370
0.788398 -0.203054 -0.201655
0.942796 -0.232155 -0.230130
0.996123 -0.256164 -0.255034
1.024521 -0.274577 -0.274062
1.068512 -0.286360 -0.286184
1.080469 -0.289572 -0.289537
1.080469 -0.289572 -0.289566
1.080469 -0.289572 -0.289569
1.080469 -0.289572 -0.289571
0.000000 0.035852 0.000317
0.000000 0.032819 0.000287
0.001260 0.029547 0.000041
0.029347 0.026109 0.000031
0.154991 0.035611 -0.036235
0.350410 0.028036 -0.128965
0.563921 0.008133 -0.175398
0.761430 -0.126217 -0.208144
0.929128 -0.200333 -0.234095
0.993918 -0.245302 -0.255568
1.018778 -0.272111 -0.273238
1.065814 -0.285622 -0.285634
1.080469 -0.289572 -0.289566
1.080469 -0.289572 -0.289570
1.080469 -0.289572 -0.289571
1.080475 -0.289565 -0.289565
0.000000 0.119137 0.000153
0.000000 0.114307 0.000136
0.000000 0.108718 0.000086
0.017243 0.100921 0.000000
0.104392 0.093696 0.000000
0.274880 0.117697 0.000000
0.489178 0.117360 -0.138933
0.709330 0.078422 -0.203951
0.900672 0.023433 -0.240563
0.989238 -0.128459 -0.264226
1.010493 -0.217023 -0.279943
1.061819 -0.262267 -0.289029
1.080398 -0.283560 -0.290837
1.080456 -0.288911 -0.289713
1.080475 -0.289564 -0.289565
1.080475 -0.289565 -0.289565
0.000000 0.234332 0.000023
0.000000 0.229532 0.000017
0.000000 0.224094 0.000000
0.002090 0.216472 0.000000
0.077399 0.206419 0.000000
0.215262 0.198513 0.000000
0.413436 0.228190 0.000000
0.623567 0.230078 -0.125305
0.836269 0.190454 -0.217359
0.975399 0.123870 -0.262937
0.999947 0.039836 -0.287529
1.053781 -0.116143 -0.299560
1.079349 -0.211538 -0.301252
1.080300 -0.243947 -0.297733
1.080490 -0.267715 -0.293982
1.080480 -0.283955 -0.290773
0.000000 0.368231 0.000000
0.000000 0.363717 0.000000
0.000000 0.358589 0.000000
0.000000 0.351250 0.000000
0.030102 0.341694 0.000000
0.184230 0.329580 0.000000
0.344881 0.321383 0.000000
0.557491 0.348862 0.000000
0.750583 0.342977 -0.086527
0.935359 0.300330 -0.214570
0.997507 0.232088 -0.273221
1.035582 0.146978 -0.301074
1.072774 0.049525 -0.310006
1.076492 0.008802 -0.308621
1.078083 -0.121779 -0.306280
1.079333 -0.190366 -0.303086
0.000000 0.513273 0.000000
0.000000 0.509326 0.000000
0.000000 0.504882 0.000000
0.000000 0.498307 0.000000
0.001020 0.489920 0.000000
0.122992 0.479306 0.000000
0.308994 0.466209 0.000000
0.488115 0.457338 0.000000
0.694543 0.468572 0.000000
0.869667 0.450288 -0.017716
0.981741 0.402579 -0.195987
1.002972 0.328770 -0.270719
1.055017 0.239316 -0.302764
1.065248 0.179103 -0.308695
1.068515 0.139739 -0.310254
1.071644 0.093268 -0.310791
0.000000 0.653090 0.000000
0.000000 0.649691 0.000000
0.000000 0.645958 0.000000
0.000000 0.640670 0.000000
0.000000 0.633767 0.000000
0.026035 0.624994 0.000000
0.239286 0.614220 0.000000
0.437872 0.601394 0.000000
0.627949 0.590660 0.000000
0.820665 0.582849 0.000000
0.955881 0.549045 0.000000
0.997228 0.492554 -0.162604
1.025113 0.409180 -0.255809
1.045734 0.339064 -0.283974
1.050097 0.309288 -0.291585
1.054610 0.275950 -0.298182
0.000000 0.783134 0.000000
0.000000 0.780528 0.000000
0.000000 0.777391 0.000000
0.000000 0.773199 0.000000
0.000000 0.767598 0.000000
0.000054 0.760279 0.000000
0.126560 0.751718 0.000000
0.357788 0.741343 0.000000
0.563230 0.728891 0.000000
0.758898 0.715636 0.000000
0.927251 0.688098 0.000000
0.990389 0.636677 0.000000
0.999915 0.566018 -0.115636
1.021648 0.485997 -0.211594
1.026259 0.458261 -0.231103
1.030684 0.431960 -0.246610
0.000000 0.899315 0.000000
0.000000 0.897583 0.000000
0.000000 0.895312 0.000000
0.000000 0.892149 0.000000
0.000000 0.887823 0.000000
0.000000 0.882350 0.000000
0.009180 0.875436 0.000000
0.244022 0.867173 0.000000
0.472636 0.857467 0.000000
0.681577 0.846104 0.000000
0.878302 0.829785 0.000000
0.979880 0.780760 0.000000
0.999306 0.709042 0.000000
1.005970 0.620606 -0.036395
1.007998 0.590401 -0.094254
1.009904 0.569831 -0.124981
0.000000 0.968156 0.000000
0.000000 0.967436 0.000000
0.000000 0.966579 0.000000
0.000000 0.965341 0.000000
0.000000 0.963726 0.000000
0.000000 0.961522 0.000000
0.000000 0.958750 0.000000
0.090793 0.955305 0.000000
0.354752 0.951066 0.000000
0.579575 0.945637 0.000000
0.789556 0.939098 0.000000
0.959242 0.924656 0.000000
0.997166 0.857602 0.000000
1.002317 0.761462 0.000000
1.006197 0.708751 0.000000
1.006197 0.691254 0.000000
0.000000 0.993698 0.000000
0.000000 0.993512 0.000000
0.000000 0.993240 0.000000
0.000000 0.992938 0.000000
0.000000 0.992455 0.000000
0.000000 0.991826 0.000000
0.000000 0.991157 0.000000
0.000339 0.990052 0.000000
0.208777 0.988815 0.000000
0.455517 0.987204 0.000000
0.675700 0.985223 0.000000
0.884000 0.982732 0.000000
0.991307 0.973419 0.000000
0.999940 0.911613 0.000000
1.006197 0.827848 0.000000
1.006197 0.810587 0.000000
0.000000 0.999537 0.000000
0.000000 0.999501 0.000000
0.000000 0.999463 0.000000
0.000000 0.999458 0.000000
0.000000 0.999369 0.000000
0.000000 0.999303 0.000000
0.000000 0.999193 0.000000
0.000000 0.999085 0.000000
0.034510 0.998849 0.000000
0.310220 0.998594 0.000000
0.543374 0.998283 0.000000
0.756488 0.997835 0.000000
0.946123 0.997181 0.000000
0.999360 0.992343 0.000000
1.006166 0.940425 0.000000
1.006197 0.924855 0.000000
0.000000 0.999977 0.000000
0.000000 0.999977 0.000000
0.000000 0.999977 0.000000
0.000000 0.999976 0.000000
0.000000 0.999976 0.000000
0.000000 0.999975 0.000000
0.000000 0.999973 0.000000
0.000000 0.999970 0.000000
0.000000 0.999965 0.000000
0.140792 0.999956 0.000000
0.394492 0.999942 0.000000
0.613421 0.999918 0.000000
0.817849 0.999874 0.000000
0.974617 0.999860 0.000000
1.002807 0.997783 0.000000
1.006197 0.986494 0.000000
0.000000 0.999977 0.000000
0.000000 0.999977 0.000000
0.000000 0.999977 0.000000
0.000000 0.999977 0.000000
0.000000 0.999977 0.000000
0.000000 0.999977 0.000000
0.000000 0.999977 0.000000
0.000000 0.999977 0.000000
0.000000 0.999977 0.000000
0.001862 0.999977 0.000000
0.248882 0.999977 0.000000
0.481812 0.999977 0.000000
0.686670 0.999977 0.000000
0.877389 0.999977 0.000000
0.988880 0.999977 0.000000
1.006197 0.999977 0.000000
0.000000 0.000000 0.006149
0.001753 0.000000 0.005992
0.018991 0.000000 0.008113
0.104381 -0.040016 0.012502
0.260349 -0.091661 0.013012
0.443440 -0.134055 0.007739
0.636090 -0.172678 -0.027018
0.815940 -0.206142 -0.135103
0.955884 -0.234770 -0.185726
0.997897 -0.258253 -0.222871
1.030826 -0.276080 -0.250377
1.071320 -0.287162 -0.268746
1.080428 -0.289732 -0.275992
1.080443 -0.289712 -0.278420
1.080449 -0.289682 -0.280826
1.080454 -0.289645 -0.283048
0.000000 0.000661 0.005308
0.000126 0.000210 0.005165
0.010373 0.000086 0.005932
0.080343 -0.031759 0.009822
0.236187 -0.087243 0.010806
0.420607 -0.130136 0.006231
0.617385 -0.169602 -0.053607
0.801170 -0.203784 -0.139670
0.949125 -0.232965 -0.188584
0.997062 -0.257004 -0.225079
1.027612 -0.275287 -0.252266
1.069988 -0.286858 -0.270535
1.080442 -0.289722 -0.277824
1.080447 -0.289694 -0.280100
1.080452 -0.289667 -0.282304
1.080457 -0.289634 -0.284287
0.000380 0.005794 0.004796
0.000741 0.004627 0.004265
0.004030 0.004042 0.004158
0.063359 0.001553 0.003299
0.214552 -0.066456 0.001825
0.396936 -0.122190 -0.021213
0.596182 -0.165401 -0.098504
0.783922 -0.200992 -0.147431
0.940672 -0.230868 -0.191705
0.995855 -0.255517 -0.227449
1.023774 -0.274336 -0.254294
1.068249 -0.286456 -0.272439
1.080446 -0.289700 -0.279749
1.080451 -0.289674 -0.281841
1.080456 -0.289633 -0.283802
1.080459 -0.289613 -0.285527
0.000000 0.035592 0.006587
0.000000 0.032598 0.006275
0.000385 0.029329 0.004753
0.027503 0.025352 0.002968
0.156933 0.027588 0.000774
0.353610 0.015218 -0.113809
0.564173 -0.038122 -0.160571
0.760040 -0.162865 -0.194958
0.927614 -0.219862 -0.223188
0.993666 -0.252159 -0.240637
1.018222 -0.272915 -0.258142
1.065541 -0.285705 -0.274760
1.080452 -0.289669 -0.282158
1.080456 -0.289630 -0.283968
1.080460 -0.289612 -0.285567
1.080463 -0.289598 -0.286947
0.000000 0.118793 0.006960
0.000000 0.113912 0.006671
0.000000 0.108355 0.006307
0.011456 0.100532 0.001926
0.101082 0.092145 0.001766
0.271684 0.110338 0.001579
0.490872 0.103447 -0.136816
0.710453 0.061433 -0.199904
0.900672 0.012494 -0.235799
0.989150 -0.152923 -0.259842
1.010079 -0.226756 -0.276367
1.061485 -0.267566 -0.286399
1.080331 -0.286700 -0.289050
1.080461 -0.289536 -0.286880
1.080464 -0.289591 -0.287353
1.080466 -0.289575 -0.288311
0.000000 0.233953 0.005814
0.000000 0.229203 0.005565
0.000000 0.223758 0.005288
0.000226 0.216065 0.002801
0.068914 0.206059 0.000888
0.212012 0.197070 0.000770
0.410287 0.223882 0.000643
0.622800 0.223967 -0.125455
0.836367 0.183251 -0.216994
0.975371 0.116450 -0.261847
0.999943 0.034493 -0.286338
1.053658 -0.126152 -0.298587
1.079374 -0.214411 -0.300608
1.080315 -0.245513 -0.297307
1.080491 -0.268531 -0.293753
1.080478 -0.284283 -0.290696
0.000000 0.367925 0.003559
0.000000 0.363333 0.003379
0.000000 0.358178 0.003179
0.000000 0.350916 0.002909
0.023298 0.341298 0.000303
0.179108 0.329254 0.000250
0.341750 0.320083 0.000197
0.554940 0.346961 0.000145
0.748638 0.340880 -0.085511
0.934695 0.298408 -0.214593
0.997409 0.230481 -0.273064
1.035351 0.145581 -0.300892
1.072766 0.048730 -0.309926
1.076526 0.008384 -0.308575
1.078102 -0.122939 -0.306248
1.079346 -0.190906 -0.303049
0.000000 0.512902 0.001328
0.000000 0.509133 0.001238
0.000000 0.504594 0.001137
0.000000 0.498030 0.001008
0.000048 0.489569 0.000054
0.117574 0.478954 0.000036
0.305829 0.465872 0.000023
0.485336 0.456516 0.000017
0.692365 0.467929 0.000000
0.868142 0.449870 -0.013758
0.981350 0.402470 -0.195508
1.002605 0.328721 -0.270591
1.054886 0.239328 -0.302719
1.065278 0.178787 -0.308716
1.068544 0.139391 -0.310280
1.071654 0.092809 -0.310791
0.000000 0.652765 0.000145
0.000000 0.649444 0.000126
0.000000 0.645742 0.000106
0.000000 0.640420 0.000083
0.000000 0.633607 0.000060
0.023513 0.624697 0.000000
0.236150 0.613987 0.000000
0.435407 0.601140 0.000000
0.625697 0.590176 0.000000
0.818989 0.582640 0.000000
0.955145 0.548996 0.000000
0.997132 0.492671 -0.161967
1.024838 0.409425 -0.255572
1.045778 0.338789 -0.284055
1.050131 0.308969 -0.291645
1.054657 0.275583 -0.298234
0.000000 0.782893 0.000000
0.000000 0.780211 0.000000
0.000000 0.777217 0.000000
0.000000 0.772934 0.000000
0.000000 0.767309 0.000000
0.000031 0.760114 0.000000
0.122819 0.751531 0.000000
0.355113 0.741065 0.000000
0.561095 0.728694 0.000000
0.756978 0.715316 0.000000
0.926244 0.688064 0.000000
0.990198 0.636776 0.000000
0.999907 0.566272 -0.114984
1.021646 0.486031 -0.211566
1.026297 0.458025 -0.231240
1.030726 0.431714 -0.246738
0.000000 0.899134 0.000000
0.000000 0.897448 0.000000
0.000000 0.895140 0.000000
0.000000 0.891971 0.000000
0.000000 0.887607 0.000000
0.000000 0.882080 0.000000
0.008203 0.875305 0.000000
0.240916 0.866916 0.000000
0.470230 0.857270 0.000000
0.679644 0.845947 0.000000
0.876788 0.829792 0.000000
0.979580 0.780968 0.000000
0.999260 0.709330 0.000000
1.005938 0.620704 -0.036071
1.008009 0.590286 -0.094489
1.009928 0.569574 -0.125293
0.000000 0.968082 0.000000
0.000000 0.967412 0.000000
0.000000 0.966545 0.000000
0.000000 0.965359 0.000000
0.000000 0.963620 0.000000
0.000000 0.961484 0.000000
0.000000 0.958733 0.000000
0.087073 0.955258 0.000000
0.352173 0.950998 0.000000
0.577559 0.945539 0.000000
0.787812 0.939014 0.000000
0.958592 0.924768 0.000000
0.997098 0.857971 0.000000
1.002193 0.761797 0.000000
1.006197 0.708500 0.000000
1.006197 0.691084 0.000000
0.000000 0.993665 0.000000
0.000000 0.993501 0.000000
0.000000 0.993267 0.000000
0.000000 0.992939 0.000000
0.000000 0.992431 0.000000
0.000000 0.991828 0.000000
0.000000 0.991099 0.000000
0.000288 0.990046 0.000000
0.205850 0.988772 0.000000
0.453380 0.987159 0.000000
0.673855 0.985135 0.000000
0.882465 0.982645 0.000000
0.991137 0.973553 0.000000
0.999936 0.912055 0.000000
1.006197 0.827723 0.000000
1.006197 0.810431 0.000000
0.000000 0.999532 0.000000
0.000000 0.999505 0.000000
0.000000 0.999457 0.000000
0.000000 0.999451 0.000000
0.000000 0.999370 0.000000
0.000000 0.999300 0.000000
0.000000 0.999195 0.000000
0.000000 0.999084 0.000000
0.032126 0.998840 0.000000
0.307881 0.998582 0.000000
0.541488 0.998277 0.000000
0.755162 0.997826 0.000000
0.945354 0.997166 0.000000
0.999378 0.992476 0.000000
1.006161 0.940493 0.000000
1.006197 0.924748 0.000000
0.000000 0.999977 0.000000
0.000000 0.999977 0.000000
0.000000 0.999977 0.000000
0.000000 0.999976 0.000000
0.000000 0.999976 0.000000
0.000000 0.999975 0.000000
0.000000 0.999973 0.000000
0.000000 0.999970 0.000000
0.000000 0.999964 0.000000
0.138030 0.999957 0.000000
0.392607 0.999942 0.000000
0.611796 0.999918 0.000000
0.816691 0.999874 0.000000
0.974155 0.999860 0.000000
1.002691 0.997806 0.000000
1.006197 0.986474 0.000000
0.000000 0.999977 0.000000
0.000000 0.999977 0.000000
0.000000 0.999977 0.000000
0.000000 0.999977 0.000000
0.000000 0.999977 0.000000
0.000000 0.999977 0.000000
0.000000 0.999977 0.000000
0.000000 0.999977 0.000000
0.000000 0.999977 0.000000
0.001481 0.999977 0.000000
0.246700 0.999977 0.000000
0.480098 0.999977 0.000000
0.685258 0.999977 0.000000
0.876306 0.999977 0.000000
0.988599 0.999977 0.000000
1.006197 0.999977 0.000000
0.000000 0.000000 0.035726
0.002262 0.000000 0.035275
0.020793 0.000000 0.034746
0.095070 0.000000 0.045508
0.232353 -0.015770 0.062502
0.415577 -0.097332 0.075441
0.615433 -0.151578 0.070607
0.801136 -0.193193 0.048626
0.949609 -0.226407 0.020506
0.997100 -0.252694 -0.041289
1.027496 -0.272289 -0.158947
1.069201 -0.284599 -0.204943
1.078825 -0.287705 -0.224842
1.079010 -0.287928 -0.230003
1.079190 -0.288156 -0.235323
1.079340 -0.288378 -0.240702
0.000000 0.001065 0.033258
0.000069 0.000336 0.032812
0.012387 0.000080 0.032309
0.072039 0.000023 0.039498
0.209218 0.000000 0.056325
0.392752 -0.092896 0.069786
0.596674 -0.148588 0.066074
0.786415 -0.191028 0.045078
0.942606 -0.224853 0.017901
0.996124 -0.251592 -0.066291
1.024402 -0.271647 -0.164212
1.067857 -0.284361 -0.208446
1.078975 -0.287875 -0.228699
1.079139 -0.288096 -0.233685
1.079279 -0.288303 -0.238784
1.079426 -0.288512 -0.243992
0.000000 0.009376 0.030549
0.000000 0.008167 0.030138
0.003280 0.004186 0.029656
0.049027 0.002764 0.031767
0.183765 0.001438 0.043605
0.370184 -0.085744 0.054627
0.576180 -0.145547 0.054973
0.769473 -0.188640 0.039748
0.933583 -0.222983 0.014990
0.994727 -0.250288 -0.084285
1.020626 -0.270827 -0.169806
1.066105 -0.284034 -0.212352
1.079104 -0.288050 -0.232712
1.079245 -0.288262 -0.237717
1.079381 -0.288463 -0.242626
1.079556 -0.288658 -0.247642
0.003026 0.033147 0.028458
0.004125 0.029699 0.026845
0.005619 0.026221 0.024914
0.025024 0.024817 0.025541
0.163584 0.015444 0.022437
0.349889 0.003594 0.018127
0.555898 -0.112970 0.012378
0.751228 -0.174661 0.005158
0.921508 -0.216741 -0.054826
0.992337 -0.247722 -0.129741
1.015062 -0.269586 -0.179168
1.063479 -0.283534 -0.217651
1.079247 -0.288264 -0.237997
1.079397 -0.288487 -0.243120
1.079560 -0.288655 -0.247763
1.079722 -0.288852 -0.252514
0.000000 0.118238 0.036750
0.000000 0.113388 0.035822
0.000000 0.107852 0.034769
0.006662 0.100008 0.025780
0.096444 0.090311 0.020666
0.273184 0.092388 0.015133
0.501750 0.064733 -0.073582
0.716383 0.022540 -0.155501
0.901812 -0.109674 -0.195697
0.988822 -0.204389 -0.224032
1.008970 -0.251684 -0.241595
1.060430 -0.276576 -0.248894
1.079567 -0.287351 -0.251742
1.079659 -0.288712 -0.250660
1.079755 -0.288925 -0.254100
1.079899 -0.289089 -0.258492
0.000000 0.233372 0.040545
0.000000 0.228613 0.039679
0.000000 0.223225 0.038730
0.000139 0.215656 0.034961
0.050426 0.205533 0.016161
0.207438 0.194848 0.015418
0.406106 0.211235 0.014558
0.629196 0.199407 -0.094464
0.843647 0.150232 -0.198649
0.977116 0.077441 -0.242289
0.999963 0.009143 -0.266765
1.054100 -0.173594 -0.280007
1.079553 -0.233724 -0.283576
1.080204 -0.260048 -0.281519
1.080207 -0.280297 -0.279177
1.080294 -0.288190 -0.271314
0.000000 0.367460 0.039944
0.000000 0.362906 0.039148
0.000000 0.357638 0.038247
